icons/Edit.svg

<svg width="15" height="15" viewBox="0 0 15 15" fill="none" xmlns="http://www.w3.org/2000/svg">
<g clip-path="url(#clip0_3_136)">
<path d="M12.46 0.117187C12.2314 0.17578 12.126 0.225585 11.9238 0.360351C11.7949 0.445312 5.11816 7.08691 5.00684 7.24219C4.94531 7.32715 4.04297 10.5293 4.04297 10.6641C4.04297 10.8281 4.2334 11.0156 4.40039 11.0156C4.5293 11.0156 7.73438 10.1104 7.81641 10.0518C7.86035 10.0195 9.40723 8.48145 11.2559 6.62988C13.708 4.1748 14.6455 3.2168 14.7334 3.0791C14.9502 2.73926 15.041 2.28808 14.9736 1.88672C14.9531 1.77246 14.8857 1.5791 14.8184 1.43555C14.7129 1.21289 14.6572 1.14551 14.2852 0.773437C13.9131 0.401366 13.8457 0.348632 13.623 0.240233C13.2275 0.0498037 12.8613 0.0117178 12.46 0.117187ZM13.3096 0.914062C13.4707 0.993163 14.0654 1.59082 14.1533 1.75781C14.2119 1.86914 14.2236 1.93359 14.2236 2.16797C14.2236 2.52246 14.1709 2.63672 13.8369 2.98535L13.5967 3.2373L12.709 2.34961L11.8213 1.46191L12.0791 1.21582C12.2227 1.08105 12.3955 0.943358 12.4658 0.908202C12.7207 0.785155 13.0605 0.788085 13.3096 0.914062ZM12.1875 2.88574L13.0518 3.75L10.3184 6.48047L7.58789 9.21387L6.72363 8.34961C6.24902 7.875 5.85938 7.47363 5.85938 7.45605C5.85938 7.41797 11.2559 2.02148 11.2939 2.02148C11.3115 2.02148 11.7129 2.41113 12.1875 2.88574ZM6.84961 9.57715C6.74121 9.6123 4.96582 10.1016 4.95996 10.0986C4.95703 10.0957 5.04785 9.76172 5.15918 9.36035C5.27051 8.95605 5.39062 8.52539 5.42578 8.39648L5.4873 8.16797L6.18457 8.86523C6.57129 9.25195 6.86719 9.57129 6.84961 9.57715Z" fill="black"/>
<path d="M1.40625 1.57029C0.793945 1.73435 0.322266 2.1738 0.105469 2.78318L0.0146484 3.0322V8.2324C0.0146484 13.1924 0.0175781 13.4414 0.0673828 13.6054C0.175781 13.957 0.292969 14.1533 0.556641 14.417C0.741211 14.6015 0.861328 14.6953 1.0166 14.7715C1.44434 14.9853 1.02539 14.9736 7.20703 14.9648L12.7588 14.956L12.9551 14.8799C13.5322 14.6543 13.9395 14.2412 14.1299 13.6816C14.1943 13.4941 14.1943 13.4648 14.2031 11.6015C14.2119 9.90525 14.209 9.7031 14.165 9.62107C14.1035 9.50388 13.9775 9.43357 13.8311 9.43357C13.7344 9.43357 13.6875 9.45408 13.5996 9.53318L13.4912 9.63279L13.4766 11.4902C13.4619 13.3388 13.4619 13.3447 13.3945 13.5117C13.2744 13.8105 13.0488 14.0361 12.75 14.1562L12.583 14.2236L7.20996 14.2324C3.66211 14.2353 1.78125 14.2295 1.67285 14.209C1.32129 14.1445 1.00781 13.9043 0.861328 13.5849L0.776367 13.4033V8.24705V3.0908L0.861328 2.90623C0.969727 2.67185 1.21875 2.43455 1.45605 2.33787L1.62598 2.27048L3.47168 2.25584C5.53418 2.23826 5.41699 2.25291 5.52246 2.03025C5.58984 1.88962 5.56055 1.75193 5.43164 1.62595L5.3291 1.52341L3.44824 1.52634C1.88672 1.52634 1.54102 1.53513 1.40625 1.57029Z" fill="black"/>
</g>
<defs>
<clipPath id="clip0_3_136">
<rect width="15" height="15" fill="white"/>
</clipPath>
</defs>
</svg>

<svg xmlns="http://www.w3.org/2000/svg" width="15" height="15" fill="none">
  <g fill="#000" clip-path="url(#a)">
    <path d="M12.46.117a1.454 1.454 0 0 0-.536.243c-.13.085-6.806 6.727-6.917 6.882-.062.085-.964 3.287-.964 3.422 0 .164.19.352.357.352.13 0 3.334-.906 3.416-.964.044-.032 1.591-1.57 3.44-3.422 2.452-2.455 3.39-3.413 3.477-3.55a1.75 1.75 0 0 0 .24-1.193 2.182 2.182 0 0 0-.155-.451c-.105-.223-.16-.29-.533-.663-.372-.372-.44-.424-.662-.533A1.601 1.601 0 0 0 12.46.117Zm.85.797c.16.08.755.677.843.844.059.111.07.176.07.41 0 .354-.052.469-.386.817l-.24.252-.888-.887-.888-.888.258-.246c.144-.135.316-.273.387-.308a1 1 0 0 1 .844.006Zm-1.123 1.972.865.864-2.734 2.73-2.73 2.734-.864-.864c-.475-.475-.865-.876-.865-.894 0-.038 5.397-5.435 5.435-5.435.018 0 .419.39.893.865ZM6.85 9.577c-.109.035-1.884.525-1.89.522-.003-.003.088-.337.2-.739.11-.404.23-.835.266-.964l.061-.228.698.697c.386.387.682.706.665.712Z"/>
    <path d="M1.406 1.57a1.882 1.882 0 0 0-1.3 1.213l-.091.25v5.2c0 4.96.003 5.208.052 5.372.109.352.226.548.49.812.184.184.304.278.46.354.427.214.008.203 6.19.194l5.552-.009.196-.076c.577-.226.985-.639 1.175-1.198.064-.188.064-.217.073-2.08.009-1.697.006-1.899-.038-1.98a.367.367 0 0 0-.334-.188c-.097 0-.143.02-.231.1l-.109.099-.014 1.857c-.015 1.849-.015 1.855-.082 2.022-.12.298-.346.524-.645.644l-.167.068-5.373.008c-3.548.003-5.429-.002-5.537-.023a1.13 1.13 0 0 1-.812-.624l-.085-.182V3.091l.085-.185c.109-.234.358-.471.595-.568l.17-.068 1.846-.014c2.062-.018 1.945-.003 2.05-.226.068-.14.039-.278-.09-.404l-.103-.103-1.88.003c-1.562 0-1.908.01-2.043.044Z"/>
  </g>
  <defs>
    <clipPath id="a">
      <path fill="#fff" d="M0 0h15v15H0z"/>
    </clipPath>
  </defs>
</svg>
